X: 4
M:2/4
L:1/4
K:Bb
"ff"kvG,kA, | kB,kC | "mf"D (E/>C/) | (D/>B,/) G, |
k[bd] k[bd] | k[bd][a/c/][B/g/] | [A^f] [B/g/]>d/ | =f e/c/|
k[b_d] k[bd] | [b=d] a/g/ | f c/d/ | B3/2 |]
L:1/16
("DANCE"k"f"de)| fgfg fdBd | fgfg fdBd | e2ec d2dB | cBAG F2(de )|
 fgfg fdBd | fgfg fdBd | e2ec d2dB | (cB)Ac B4 |]\
"BREAK"kb2ag f2e2 | kd2kc2kB2 z2|]


